docs/public/ad-stream-bridge-logo.svg

<?xml version="1.0" encoding="UTF-8"?>
<svg id="_图层_1" data-name="图层 1" xmlns="http://www.w3.org/2000/svg" xmlns:xlink="http://www.w3.org/1999/xlink" viewBox="0 0 1024 1024">
  <defs>
    <style>
      .cls-1 {
        fill: url(#_未命名的渐变_2-2);
      }

      .cls-2 {
        fill: url(#_未命名的渐变_2);
      }
    </style>
    <linearGradient id="_未命名的渐变_2" data-name="未命名的渐变 2" x1="-14.92" y1="460.02" x2="-13.52" y2="461.42" gradientTransform="translate(11859.1 -196557.48) scale(784.6 428.3)" gradientUnits="userSpaceOnUse">
      <stop offset="0" stop-color="#5b2b82"/>
      <stop offset=".5" stop-color="#5b2b82"/>
      <stop offset="1" stop-color="#6cff00"/>
    </linearGradient>
    <linearGradient id="_未命名的渐变_2-2" data-name="未命名的渐变 2" x1="-15.04" y1="460.13" x2="-13.64" y2="461.53" gradientTransform="translate(11778.95 -196884.4) scale(784.6 428.3)" xlink:href="#_未命名的渐变_2"/>
  </defs>
  <polygon class="cls-2" points="313.48 623.74 276.3 697.07 80.15 697.07 264.45 327 395.11 327 422.08 396.04 460.3 529.07 489.93 596.63 398.67 597.22 327.56 426.85 238.08 623.3 313.48 623.74"/>
  <path class="cls-1" d="M337.78,623.45l-37.11,73.63h283.48c68.44,0,126.81-44.45,126.81-99.26,0-24.75-12.8-49.27-34.66-68.45-26.56-23.3-65-39.77-91.86-52.44-48.88-23.11-77.25-34.15-77.25-51.93s14.88-19.77,29.33-19.77h220.22c38.45,0,72.89,2.44,72.89,33.55s-31.56,32.67-42,32.67-156.22,1.55-156.22,1.55c0,0,32.44,12.67,60.22,33.56,27.78,20.89,37.78,44.59,37.78,44.59h38c20.66,0,69.33,1.41,69.33,37.85s-38.44,34.23-38.44,34.23h-67.11s-3.34,17.77-22.23,40c-11.52,13.47-25.56,24.56-41.33,32.66,0,0,113.56,1.19,149.11,1.19s127.11-19.85,127.11-95.85-62.44-94.23-62.44-94.23c0,0,50-19.11,50-76s-59.56-103.11-144.89-103.11-223.78-.89-257.52-.89-87.63-5.33-114.29,71.11,41.59,128.45,41.59,128.45l121.55,51.89s19.78,7.22,19.34,24.78-19.56,19.77-19.56,19.77l-239.85.45Z"/>
</svg>

<svg id="图层_1" data-name="图层 1" xmlns="http://www.w3.org/2000/svg" viewBox="0 0 863.7 370.15">
  <defs>
    <style>
      .st0 {
      fill: url(#_未命名的渐变);
      }
    </style>
    <linearGradient id="_未命名的渐变" data-name="未命名的渐变" x1="431.2" y1="593.6" x2="432.6" y2="592.2" gradientTransform="translate(-338410.1 254469.4) scale(784.6 -428.3)" gradientUnits="userSpaceOnUse">
      <stop offset="0" stop-color="#5b2b82"/>
      <stop offset=".5" stop-color="#5b2b82"/>
      <stop offset="1" stop-color="#6cff00"/>
    </linearGradient>
  </defs>
  <polygon class="st0" points="233.33 296.82 196.15 370.15 0 370.15 184.3 0.08 314.96 0.08 341.93 69.12 380.15 202.15 409.78 269.71 318.52 270.3 247.41 99.93 157.93 296.38 233.33 296.82"/>
  <path class="st0" d="M337.78,623.45l-37.11,73.63H584.15c68.44,0,126.81-44.45,126.81-99.26,0-24.75-12.8-49.27-34.66-68.45-26.56-23.3-65-39.77-91.86-52.44-48.88-23.11-77.25-34.15-77.25-51.93s14.88-19.77,29.33-19.77H756.74c38.45,0,72.89,2.44,72.89,33.55s-31.56,32.67-42,32.67S631.41,473,631.41,473s32.44,12.67,60.22,33.56,37.78,44.59,37.78,44.59h38c20.66,0,69.33,1.41,69.33,37.85s-38.44,34.23-38.44,34.23H731.19s-3.34,17.77-22.23,40a136.35,136.35,0,0,1-41.33,32.66s113.56,1.19,149.11,1.19,127.11-19.85,127.11-95.85S881.41,507,881.41,507s50-19.11,50-76S871.85,327.89,786.52,327.89,562.74,327,529,327s-87.63-5.33-114.29,71.11S456.3,526.56,456.3,526.56l121.55,51.89s19.78,7.22,19.34,24.78S577.63,623,577.63,623Z" transform="translate(-80.15 -326.92)"/>
</svg>
